src/components/common/icons/read.svg

<svg height="53" viewBox="0 0 51 53" width="51" xmlns="http://www.w3.org/2000/svg"><path d="m34.7282 11.4932909c-.173875 0-.34125.0112424-.508625.0160606v-11.39178786h-7.50425c-5.6095 0-10.1725 4.5130303-10.1725 10.05715156v1.3362424c-.17225-.0048182-.33475-.0176667-.511875-.0176667h-16.024125v36.9570606h16.024125c4.236375 0 6.45775 1.3282121 8.126625 2.7993637l1.031875 1.0198484.024375-.0256969c.05525.054606.1105.1108181.164125.1670303 1.86875-1.8469697 4.008875-3.9605455 9.35025-3.9605455h16.0225v-36.9570606zm-13.862875-1.3185757c0-3.18963641 2.624375-5.78503035 5.85-5.78503035h3.180125v24.76545455h-3.18175c-2.16775 0-4.18925.6954242-5.848375 1.8726667zm0 29.0568484c.034125-1.8790909.95875-3.5477878 2.351375-4.611v9.6572425l-.641875-.6327879c-.98475-.9748788-1.659125-2.6580303-1.7095-4.2416061zm-16.536 4.9466667v-28.4128182h11.701625c.177125 0 .34125.0096364.511875.0160606l-.00325 23.4324243c0 1.7393636.44525 3.5060303 1.230125 5.0333939-.550875-.0449697-1.129375-.0690606-1.73875-.0690606zm42.098875 0h-11.7c-3.040375 0-5.3625.5685455-7.187375 1.3844242v-12.1353939h6.67875v-17.6473939c.16575-.0064243.333125-.0144546.508625-.0144546h11.7z" fill="#010202" fill-rule="evenodd"/></svg>

<?xml version="1.0" encoding="UTF-8"?>
<svg width="51px" height="53px" viewBox="0 0 51 53" version="1.1" xmlns="http://www.w3.org/2000/svg" xmlns:xlink="http://www.w3.org/1999/xlink">
    <!-- Generator: Sketch 52.5 (67469) - http://www.bohemiancoding.com/sketch -->
    <title>Icons/.read</title>
    <desc>Created with Sketch.</desc>
    <g id="Vapaaehtoisalusta-Layouts" stroke="none" stroke-width="1" fill="none" fill-rule="evenodd">
        <g id="HKI-Ikonit" transform="translate(-549.000000, -377.000000)" fill="#010202">
            <g id="Icons/.read" transform="translate(549.000000, 377.000000)">
                <path d="M34.7282,11.4932909 C34.554325,11.4932909 34.38695,11.5045333 34.219575,11.5093515 L34.219575,0.117563636 L26.715325,0.117563636 C21.105825,0.117563636 16.542825,4.63059394 16.542825,10.1747152 L16.542825,11.5109576 C16.370575,11.5061394 16.208075,11.4932909 16.03095,11.4932909 L0.006825,11.4932909 L0.006825,48.4503515 L16.03095,48.4503515 C20.267325,48.4503515 22.4887,49.7785636 24.157575,51.2497152 L25.18945,52.2695636 L25.213825,52.2438667 C25.269075,52.2984727 25.324325,52.3546848 25.37795,52.410897 C27.2467,50.5639273 29.386825,48.4503515 34.7282,48.4503515 L50.7507,48.4503515 L50.7507,11.4932909 L34.7282,11.4932909 Z M20.865325,10.1747152 C20.865325,6.98507879 23.4897,4.38968485 26.715325,4.38968485 L29.89545,4.38968485 L29.89545,29.1551394 L26.7137,29.1551394 C24.54595,29.1551394 22.52445,29.8505636 20.865325,31.0278061 L20.865325,10.1747152 Z M20.865325,39.2315636 C20.89945,37.3524727 21.824075,35.6837758 23.2167,34.6205636 L23.2167,44.2778061 L22.574825,43.6450182 C21.590075,42.6701394 20.9157,40.9869879 20.865325,39.4034121 L20.865325,39.2315636 Z M4.329325,44.1782303 L4.329325,15.7654121 L16.03095,15.7654121 C16.208075,15.7654121 16.3722,15.7750485 16.542825,15.7814727 L16.539575,39.213897 C16.539575,40.9532606 16.984825,42.7199273 17.7697,44.2472909 C17.218825,44.2023212 16.640325,44.1782303 16.03095,44.1782303 L4.329325,44.1782303 Z M46.4282,44.1782303 L34.7282,44.1782303 C31.687825,44.1782303 29.3657,44.7467758 27.540825,45.5626545 L27.540825,33.4272606 L34.219575,33.4272606 L34.219575,15.7798667 C34.385325,15.7734424 34.5527,15.7654121 34.7282,15.7654121 L46.4282,15.7654121 L46.4282,44.1782303 Z" id="Fill-26"></path>
            </g>
        </g>
    </g>
</svg>
